GT-RIPL/AugCL/logs/cartpole_swingup/drq/no_id/seed_0/train.csv
,episode_reward,episode,duration,step,critic_loss,critic_target_Q_variance_m=2,critic_Q1_variance_k=2,critic_Q2_variance_k=2,actor_loss,actor_mean_entropy,alpha_loss,alpha_value
0,0.0,1.0,2.1876115798950195,125,,,,,,,,
1,180.47110058644063,2.0,0.29920530319213867,250,,,,,,,,
2,48.52626484966922,3.0,0.28913116455078125,375,,,,,,,,
3,106.030169546403,4.0,0.2857046127319336,500,,,,,,,,
4,153.95059426464144,5.0,0.29990100860595703,625,,,,,,,,
5,59.72123608737102,6.0,0.2823207378387451,750,,,,,,,,
6,108.39820293463187,7.0,0.28784966468811035,875,,,,,,,,
7,66.9949003284935,8.0,0.2892749309539795,1000,,,,,,,,
8,211.25384590482398,9.0,319.1063811779022,1125,9.997184758508757,14.497556470440587,0.29089491156407454,0.2911612052874238,-5.789738542840531,1.1845111532624384,0.11924158008997161,0.09533303571820786
9,160.39489955698747,10.0,34.79624819755554,1250,14.165562446594238,36.04900804138184,0.4757903101444244,0.47458919072151184,-10.714345608988117,1.1035049500003937,0.08020207892742849,0.09110272062139915
10,149.08592689152394,11.0,34.65989136695862,1375,12.42209432220459,38.986554214477536,0.4542358226776123,0.45405174815654753,-11.301038030594114,1.05250093388179,0.08225052496270528,0.09069540137795414
11,180.74257799478602,12.0,34.84343242645264,1500,17.05177293395996,45.99962078857422,0.559118700504303,0.5576131312847138,-12.238863422024634,0.9928973644010483,0.08375647682095727,0.09027489138906174
12,242.8334506882569,13.0,35.087477684020996,1625,15.858837524414062,51.05226516723633,0.492115709066391,0.4925980715751648,-13.049054085262238,0.8937826468831017,0.08467134555417394,0.08984053940055427
13,229.35454862695863,14.0,34.713422775268555,1750,15.43270336151123,57.07592950439453,0.4832355319261551,0.4819772948026657,-13.86356698313067,0.7445093907656208,0.08209535022897105,0.08940188282070854
14,206.82014706308263,15.0,34.76644945144653,1875,15.946615737915039,63.630554290771485,0.47127266907691956,0.47301825165748596,-14.941386919172983,0.7469518605678801,0.07504382971969861,0.08898312436698114
15,211.9140380443002,16.0,34.85097312927246,2000,19.175246505737306,72.16960656738281,0.5451989079713822,0.5442464413642883,-15.96599277373283,0.7097107734410993,0.06476084281119608,0.08860482848378856
16,281.4616865047378,17.0,34.74730038642883,2125,18.040505500793458,82.79826727294922,0.526442451953888,0.5251387834548951,-17.020952027941508,0.6686738407801068,0.056017882678480374,0.08828448136498288
17,300.19607595172204,18.0,34.89666724205017,2250,22.034252922058105,93.6727163696289,0.6358490271568298,0.6324158685207367,-18.09354385252922,0.6378312283946622,0.04754237022491232,0.08800098999338225
18,188.47553488821933,19.0,35.298187255859375,2375,20.38782783508301,101.38308166503906,0.5676043204069138,0.5688292896747589,-19.010480608258927,0.6414018817364223,0.04444607446295402,0.08773121402161148
19,216.36695100858256,20.0,34.24011993408203,2500,20.303060569763183,107.35400451660156,0.5814713408946991,0.5837778565883637,-19.506818217615926,0.6537806507079832,0.04054471492887505,0.08747813727106227
20,202.43114354777703,21.0,35.62615466117859,2625,23.198819244384765,118.7132872314453,0.674395269036293,0.6692417874336243,-20.713802216544984,0.6265143501380134,0.04300775495727384,0.0872274661231636
21,231.92935156794266,22.0,34.6204149723053,2750,29.881205757141114,131.74790716552735,0.814282113313675,0.8179935185909272,-21.739113623096095,0.5845420735497628,0.04124096546682619,0.08696384648802417
22,260.201232718894,23.0,34.88485503196716,2875,32.06123806762695,147.23426977539063,0.8848041715621948,0.8820786263942718,-22.937661640227788,0.5644234700335397,0.031750090131979616,0.08673155863261592
23,283.9468042412285,24.0,34.6210081577301,3000,30.177665817260742,160.68030749511718,0.9008014154434204,0.9048433926105499,-24.06917292071927,0.4981217865020998,0.03093371097178709,0.08653020655153604
24,282.21567636286767,25.0,35.177122831344604,3125,30.66883769226074,172.6167919921875,0.9074707746505737,0.9128017802238464,-25.153039266192724,0.4579172084728877,0.026200572235716715,0.08632144979346683
25,366.8649987527494,26.0,34.57536244392395,3250,47.047538146972656,196.63294580078124,1.2198463406562805,1.216813359260559,-26.635926800389445,0.4783112983549795,0.0235458014930989,0.08615629161658375
26,244.29442882276044,27.0,34.78635334968567,3375,35.88763830566406,206.814607421875,1.0844904460906983,1.0833874521255493,-27.38402817741273,0.4369169681791275,0.01933320824219476,0.08601143300323379
27,232.995452257285,28.0,34.703651428222656,3500,34.15962902832031,222.27619567871093,1.0643309988975524,1.0672525362968446,-28.61255012019988,0.3637201363040555,0.019063515892823138,0.08586672973388716
28,274.4918868010651,29.0,34.831164836883545,3625,35.60351068115234,239.6345909423828,1.1155939321517945,1.1224623551368713,-29.603713989257812,0.42322456860353075,0.017512533939369614,0.08572063708329221
29,283.9098477123428,30.0,34.62284278869629,3750,34.341627090454104,256.043927734375,1.0655682439804077,1.069676393032074,-30.618299791889807,0.4012629579632513,0.015097884342990696,0.08560621940078025
30,338.99352358700037,31.0,34.73219656944275,3875,39.22650932312012,280.1808843994141,1.162070810317993,1.174500997543335,-32.19275883265904,0.37491484080988263,0.01286752983402934,0.08547869400664815
31,248.60667829895257,32.0,34.43302869796753,4000,37.12922509765625,296.40386474609375,1.134249029159546,1.1402051949501038,-33.13028917004985,0.4075038380199863,0.012832257819677433,0.0853880555357101
32,258.4808723446924,33.0,34.75394868850708,4125,38.68976988220215,315.8083493652344,1.1793449745178222,1.1817199177742004,-34.147530116732156,0.35125753851163954,0.011314435425909266,0.08527330030327976
33,245.4270677194614,34.0,34.34006690979004,4250,37.71400210571289,338.6092548828125,1.1695460481643676,1.1848990392684937,-35.49722203900737,0.28393819189119723,0.005073798232666788,0.0851934834901776
34,267.42298109237555,35.0,34.87498664855957,4375,39.15957992553711,357.81246508789064,1.2505349855422974,1.2536409282684327,-36.627305227612695,0.2958877373427626,0.001524008507470763,0.08516914213005662
35,278.8360752005516,36.0,34.38462162017822,4500,36.385999298095705,378.13237475585936,1.1566765904426575,1.1560256819725037,-37.79567060162944,0.2995621169046048,0.0023390044657243115,0.08515304430705108
36,277.80350017533823,37.0,34.79376983642578,4625,41.11070426940918,409.43191918945314,1.3111951966285706,1.3158322381973266,-39.2021369934082,0.31722765049291035,0.0030889425792598297,0.08512868097877262
37,385.1277191434907,38.0,34.615941762924194,4750,38.995280944824216,438.4162333984375,1.2606564359664918,1.2708286747932434,-40.661507391160534,0.2677807229901514,0.003517548948894405,0.08508801421158418
38,456.89630980929707,39.0,34.81231665611267,4875,56.911150268554685,486.02413500976564,1.5589512939453125,1.5483444414138794,-42.63823397197421,0.23421434437235197,0.002846982594328149,0.0850591941520271
39,278.513674891568,40.0,34.71156120300293,5000,42.96402149963379,515.7004223632813,1.4315123138427734,1.43558091878891,-44.03403688246204,0.19187277519414503,-0.0003927457221453228,0.08504576927887826
40,340.92126221546897,41.0,34.47430467605591,5125,47.19765982055664,537.5366623535157,1.4662188405990602,1.4814022436141967,-44.982662322029235,0.2466125607727066,-0.004068007173445371,0.08507282082886337
41,373.3936560308274,42.0,34.554187059402466,5250,49.04123760986328,577.8829931640626,1.5569111323356628,1.556541124343872,-46.59762351743637,0.20124490979698398,-0.00047779630028432416,0.08510656696639486
42,478.1559229309394,43.0,34.63420605659485,5375,46.88001475524902,616.6083911132813,1.6014992909431458,1.5892289452552795,-48.114982423328215,0.20549997586816077,-0.008494456479739811,0.08516751849430018
43,402.1095442642532,44.0,34.46954035758972,5500,54.43279992675781,660.2168583984375,1.7147944250106812,1.7138140249252318,-49.8255672454834,0.13149462171619938,-0.014307066024611554,0.08527432307402723
44,352.7037870304743,45.0,34.720937728881836,5625,52.71977020263672,702.80973046875,1.7007281613349914,1.6944488258361816,-51.447911398751394,0.13739550143243776,-0.009427524792651335,0.08544356694744401
45,413.4739642139609,46.0,34.67683291435242,5750,53.83067233276367,748.499150390625,1.6453729963302612,1.6530785703659057,-52.84655903231713,0.10640212989622547,-0.016679890115835493,0.08559240098042623
46,301.68653756388795,47.0,34.66921305656433,5875,55.307128051757815,798.6912763671875,1.7724883852005004,1.7735364646911622,-54.97052292596726,0.14214948960949506,-0.013274161119220985,0.08579393886037245
47,248.68185887114993,48.0,34.64674210548401,6000,57.80965428161621,847.35427734375,1.691788496017456,1.6945181179046631,-56.75470382936539,0.11662456489378406,-0.020303349309195313,0.08599832224616391
48,304.44873211753844,49.0,35.044328451156616,6125,53.73362687683105,897.7133627929687,1.6487930879592896,1.650457971572876,-58.446443285260884,0.08986192918013013,-0.018844889842772057,0.08629289286476752
49,485.22516327256653,50.0,34.643627643585205,6250,53.441584075927736,959.8574047851563,1.7132517547607422,1.7151681470870972,-60.62877008991857,0.12870925959319837,-0.02362760729456861,0.08656676943700553
50,366.2172771933742,51.0,35.11442947387695,6375,53.54393823242187,1020.008990234375,1.6973797554969787,1.686551003932953,-62.37655246068561,0.1284921925574068,-0.017740372259775917,0.08688423063282784
51,534.8956384488343,52.0,34.8607063293457,6500,56.88528762817383,1080.9222485351563,1.8303254079818725,1.8141424369812011,-64.08330966580299,0.1360186357952414,-0.021966793979968754,0.08717324165601144
52,470.8330929494518,53.0,33.66441583633423,6625,54.58041662597656,1156.433107421875,1.7802871007919312,1.7715939860343932,-66.59507799905444,0.049137679120850944,-0.024920356570787373,0.08750952537411898
53,341.7421859967541,54.0,34.41356825828552,6750,56.16580865478516,1204.0019775390624,1.8611130561828613,1.8533522996902465,-67.88270568847656,0.07209390239609827,-0.027531735674147646,0.08792558289819292
54,585.6522724578625,55.0,34.60250496864319,6875,63.40604598999023,1309.5483271484375,1.937562479019165,1.9286032104492188,-70.54945688399057,0.11169114265413511,-0.022264078381426987,0.0883186210337776
55,690.15585320597,56.0,34.30313682556152,7000,68.14586700439453,1409.9123408203125,2.0656266465187074,2.062735641479492,-72.97062670799994,0.06067322464960237,-0.0302051835423035,0.08871310474474035
56,611.0789206227263,57.0,34.62588810920715,7125,68.10240173339844,1482.971123046875,2.1882746772766115,2.171342551231384,-75.0447507585798,0.019792138938865965,-0.028191668513630117,0.08916722758899262
57,476.5599493235826,58.0,34.53558540344238,7250,77.84230737304688,1575.2511181640625,2.3572072887420656,2.351413927078247,-76.91384481614635,0.07014466083097842,-0.025148300386424505,0.08963008910911982
58,445.41046470891695,59.0,34.52183222770691,7375,75.83216104125977,1638.98102734375,2.300085676193237,2.3205765867233277,-78.59659709627667,-0.06510915657475827,-0.03670115162071491,0.09010879666785301
59,546.1922961124963,60.0,35.43136286735535,7500,79.74479483032226,1741.3173935546874,2.4274719295501708,2.426041787147522,-80.8733178415606,-0.018393167985543128,-0.03214293059652611,0.09068234678790373
60,619.9511048265606,61.0,34.9543182849884,7625,80.06850784301758,1861.0084912109376,2.5618027572631834,2.56801735496521,-83.72161695692274,-0.018959604440227387,-0.03228838953913914,0.09120734046549746
61,752.0722704711767,62.0,34.98735594749451,7750,85.99429733276367,1981.305796875,2.7897652378082274,2.788625507354736,-86.435363892586,-0.06435305979703704,-0.03589656018471766,0.09178602740651429
62,593.9056470391245,63.0,34.51370143890381,7875,90.4430060119629,2105.3844765625,2.9939860763549806,2.985359932899475,-88.59188806442987,-0.033733160604560185,-0.03715310492626731,0.09236120392258736
63,667.1875174401026,64.0,34.512929916381836,8000,95.56715319824218,2220.2029736328127,2.9941356649398805,2.9780734329223635,-91.65041215958134,-0.04700774609321548,-0.04132637354515253,0.09303139293969938
64,740.0694425514413,65.0,34.68764090538025,8125,105.69698974609375,2388.608994140625,3.211337863922119,3.2003200988769533,-94.06880757165334,-0.06063634494230861,-0.049280953046584884,0.09377212721297908
65,745.4538557616612,66.0,34.34772181510925,8250,106.34523004150391,2546.119060546875,3.416139150619507,3.4041393756866456,-96.75070030458512,-0.032095021057513454,-0.04995839625236488,0.09454327369815406
66,678.2228808633095,67.0,34.49820351600647,8375,115.33865441894531,2721.30511328125,3.659301305770874,3.6784911956787107,-100.01209912981305,-0.08648636038341219,-0.04844374928091254,0.09531785766535568
67,670.705322043896,68.0,34.76369309425354,8500,119.74989233398438,2841.96809765625,3.968490809440613,3.945334461212158,-102.6191669587166,-0.10313270932003375,-0.05066211407463397,0.09610169638745879
68,649.929021608138,69.0,34.670092821121216,8625,131.55963439941405,3031.511927734375,3.8799960594177247,3.8882849082946778,-105.37886664980934,-0.11642501243050137,-0.057987745319093974,0.09689810077641607
69,630.1487736304792,70.0,34.783642053604126,8750,127.74798046875,3213.959068359375,3.996490682601929,3.9743226737976074,-108.66339234382876,-0.1813172136223124,-0.05124339449309533,0.09770345890749936
70,665.9777818929587,71.0,34.715364933013916,8875,124.68133367919921,3363.599498046875,4.0210529289245605,4.007988670349121,-110.9015604654948,-0.10676269079484636,-0.050941589288413525,0.09843920613915497
71,774.1449013619477,72.0,34.48430395126343,9000,139.41762322998048,3564.527212890625,4.164533006668091,4.154093790054321,-114.39284466158959,-0.11224531484467368,-0.055073734252683575,0.09921598354262998
72,665.7983704609779,73.0,34.572707653045654,9125,147.15825811767579,3772.43384765625,4.4485210609436034,4.482697055816651,-117.28116474454364,-0.09016900278982662,-0.05611727272884713,0.0999969645044385
73,655.0769852107195,74.0,34.43672513961792,9250,150.07317510986329,3991.11978515625,4.722671356201172,4.70110615158081,-120.77643363706527,-0.11840490672376848,-0.06636952263333144,0.10083810854781039
74,704.2612346044069,75.0,34.907389879226685,9375,152.72519006347656,4233.85873828125,4.912112911224365,4.913748825073243,-124.7938984462193,-0.13952253244462468,-0.06590616768078199,0.10172013719665875
75,800.3959777258573,76.0,34.44834494590759,9500,164.46264837646484,4403.218408203125,4.755791507720947,4.762395462036133,-127.50683212280273,-0.12116001900886336,-0.06508784963478965,0.10261785520308793
76,548.6269312372054,77.0,34.620532512664795,9625,186.78360034179687,4648.85955859375,5.159609029769897,5.123484712600708,-130.55975923084077,-0.0873554762866762,-0.06464429844229941,0.10346351985091526
77,740.5864876950582,78.0,34.68502926826477,9750,176.11249182128907,4885.206828125,5.14572233581543,5.149187351226806,-133.52062176119895,-0.19761562341403577,-0.07668032953816076,0.10428391712242167
78,567.0939851027523,79.0,34.61532711982727,9875,163.53548065185547,5161.27315625,5.12749515914917,5.132613967895508,-137.21912517244854,-0.1266343573492671,-0.06731613145934211,0.10524623394605537
79,527.8666485981403,80.0,34.61465644836426,10000,178.98890612792968,5395.01944140625,5.5108900527954106,5.538376964569092,-140.52776410502773,-0.07949688754254772,-0.06703297787856671,0.10607591965083817
80,703.7462974416653,81.0,36.50388479232788,10125,179.41355883789063,5631.8088203125,5.654815753936767,5.649884750366211,-143.57552543519034,-0.09727543444624023,-0.07372650078364781,0.10690333284082652
81,568.9483417625622,82.0,32.45639657974243,10250,197.44671472167968,5936.4206328125,6.05604256439209,6.025629203796386,-147.01715506276776,-0.11395328909519219,-0.07504234829496953,0.10780959988509728
82,700.4983681206053,83.0,35.00818347930908,10375,204.36661053466796,6160.6324921875,6.0155961799621585,5.996363477706909,-149.8882560124473,-0.10787990896238221,-0.0790489800865688,0.10869112854098706
83,698.1609271763425,84.0,34.40646314620972,10500,208.20070471191406,6541.2167421875,6.075094552993774,6.107849296569825,-154.8951396326865,-0.07690878167387939,-0.07810681253190964,0.10959454993798055
84,670.1853181142366,85.0,34.488237142562866,10625,212.21605224609374,6822.5804453125,6.560801383972168,6.551051355361938,-159.24381486196367,-0.15208619856645192,-0.07886836790139713,0.11048020107567082
85,723.1438261037739,86.0,34.35680961608887,10750,211.21184686279298,7028.7253515625,6.416322479248047,6.3849103527069095,-161.43594926403415,-0.06851549542719318,-0.08045457555882392,0.1113814940584396
86,584.4073973123336,87.0,34.81264281272888,10875,222.0810069580078,7356.9904921875,6.4106414451599125,6.425386510848999,-164.9935605488126,-0.11033245037117648,-0.08066351575747369,0.11225434206203913
87,736.1860124171006,88.0,34.39802050590515,11000,213.21171142578126,7691.0901171875,6.571940275192261,6.504670106887818,-168.07150170110887,-0.022577213544038036,-0.08200951936023851,0.11312729905294985
88,707.1477819673914,89.0,34.77594518661499,11125,223.35646789550782,7955.47175,6.4786130218505855,6.463857995986938,-171.35941932314918,-0.11193099292734313,-0.08439489418552035,0.11399579148280016
89,718.9090147119126,90.0,34.625962257385254,11250,231.19598907470703,8272.338484375,6.804365037918091,6.847864582061767,-175.69025051978326,-0.07652520802953551,-0.07523435582557032,0.11486192127313838
90,673.7714155786492,91.0,34.56102728843689,11375,241.52376257324218,8623.82202734375,6.985774768829346,6.998854951858521,-178.83097088526165,-0.12741811993339705,-0.08238952926227025,0.11569176579718095
91,681.4370430571498,92.0,34.44318079948425,11500,245.20429541015625,9029.271796875,7.3304047012329105,7.316820837020874,-182.9558073474515,-0.01109188692944665,-0.08519975216157975,0.1165525635055364
92,734.2330802823666,93.0,34.69038009643555,11625,236.7801654663086,9364.0020546875,7.20577359008789,7.189022584915161,-186.98230513315352,-0.11829785092009439,-0.08473817868128655,0.11742843067520062
93,721.9609766454167,94.0,34.79127883911133,11750,241.58111779785156,9688.3179296875,6.867345575332641,6.826064350128174,-189.61588582684917,-0.0829305813437508,-0.09430315201320956,0.11835416949663329
94,730.2558970805769,95.0,34.70297026634216,11875,226.0404907836914,10019.043671875,7.305695276260376,7.287552591323853,-193.3776622953869,-0.04303870557083024,-0.08703774438490944,0.1192731494297293
95,753.4328351954659,96.0,34.57616138458252,12000,227.86219384765624,10438.3693671875,6.8117735404968265,6.766204957962036,-198.14935770342427,-0.08187499708465991,-0.08951803086505782,0.12013611323799375
96,715.0426081400758,97.0,34.52610230445862,12125,239.25648602294922,10857.2958046875,7.054017841339111,7.007428218841553,-201.74485754588292,-0.08216829846302669,-0.08797476452494425,0.1210468826791168
97,686.1479890824758,98.0,34.38200855255127,12250,224.8530523071289,11168.0680234375,7.107552358627319,7.0794885578155515,-204.5778340985698,-0.06412387538641211,-0.08193127540571074,0.12189459566565435
98,742.0093517167187,99.0,34.69837188720703,12375,224.7351513671875,11525.44296875,6.863044162750244,6.8458775043487545,-208.13012574210998,-0.099495494472129,-0.08945971863373878,0.12274221655419948
99,742.4708361537643,100.0,34.24239444732666,12500,214.24876965332032,11994.7068125,6.469259052276612,6.454714193344116,-212.1310095017956,-0.13262264400480256,-0.09000690762073763,0.12364302523114368
100,813.5564463922763,101.0,34.88172268867493,12625,229.76514721679686,12361.154671875,7.115896947860718,7.105514125823975,-216.0359857952784,-0.15462250942512165,-0.08532451252852168,0.12447836608732803
101,749.9709774646913,102.0,34.53503489494324,12750,223.20893994140624,12725.09653125,7.0727228279113765,7.105345924377441,-219.57642561389554,-0.0794432265383582,-0.08374093040343254,0.12531283416096278
102,751.2034471479151,103.0,34.73351001739502,12875,227.40437255859376,13100.9153515625,6.898544368743896,6.823807033538818,-221.97513301788814,-0.09285733494020644,-0.09006422622099755,0.12614735105215888
103,757.1157016204681,104.0,34.31841588020325,13000,243.2672196044922,13585.4870390625,7.215157320022583,7.174974027633667,-226.53058378158076,-0.12290550275675712,-0.09672150574624538,0.12704952301397474
104,761.5552688683779,105.0,34.50942063331604,13125,221.22637084960937,14004.4231953125,6.829339399337768,6.752605670928955,-231.3851294139075,-0.1743578001975067,-0.07892795882764317,0.12792773559307366
105,802.0000040813683,106.0,34.4887957572937,13250,229.94262341308593,14493.4331015625,6.8063161277771,6.786611267089844,-234.33660593340474,-0.13060241607168027,-0.09223278263403524,0.128768392209307
106,748.953395679522,107.0,34.66753911972046,13375,229.85488098144532,14945.004875,6.9330957355499265,6.935603551864624,-238.9315454392206,-0.13818386711535,-0.0922757549773133,0.12964710924313272
107,760.0513748653007,108.0,34.74665927886963,13500,237.01761303710938,15281.2490078125,7.030797933578492,6.956225660324097,-241.45240586803806,-0.12027428515495793,-0.08461088278601246,0.13052661149891237
108,764.2470465604478,109.0,34.737252950668335,13625,233.00217169189452,15817.604375,7.066736549377441,7.088579702377319,-245.87500169542102,-0.21362809079980094,-0.08595203791582395,0.13136543489148214
109,671.7205415219755,110.0,35.033629417419434,13750,227.6386905517578,16254.5559375,7.215692363739014,7.207922540664673,-249.3272175942698,-0.21016876237286675,-0.0887283252612237,0.13222927355966604
110,759.1365329044677,111.0,34.61037254333496,13875,221.99307049560548,16673.5801796875,7.118696075439453,7.075873317718506,-251.96104649135046,-0.13523820013044371,-0.0865502774360634,0.13309618162496112
111,743.651344758527,112.0,34.36035394668579,14000,228.75428393554688,17135.146890625,6.903708236694336,6.805805953979492,-256.0209490868353,-0.18280748001510097,-0.08718821796919068,0.13395173592305418
112,755.8600026366764,113.0,34.754536628723145,14125,206.9915135498047,17558.7586953125,6.664015256881714,6.549971754074097,-259.9967985607329,-0.19236585486029822,-0.08603976980324775,0.13477910110926958
113,729.7014080697581,114.0,34.497249364852905,14250,239.70647094726561,17892.4794453125,7.231600149154663,7.1772553310394285,-261.27237775248864,-0.15993139418142457,-0.08509386979764508,0.13563736063471668
114,766.7723062651471,115.0,34.51870679855347,14375,237.72289178466798,18576.60378125,6.95047671508789,6.94884259223938,-267.8928014361669,-0.14825213121043312,-0.09952393907403188,0.13656238729025497
115,731.2380781296647,116.0,34.333348989486694,14500,221.90361993408203,19002.029046875,6.961904224395752,7.001676614761353,-270.2545904344128,-0.08899952759665827,-0.08303518449106524,0.13747183334294835
116,750.5043899572927,117.0,34.66056299209595,14625,229.16266009521485,19546.61734375,6.6001469440460205,6.64373903465271,-273.3141881549169,-0.09261257934664922,-0.08712233319169,0.13833701228821732
117,762.0247351293718,118.0,34.62697076797485,14750,209.71747387695314,19971.8636875,6.419796152114868,6.4257404994964595,-277.94749253795993,-0.14096725978437932,-0.09043984625849032,0.13920230958682742
118,771.14402187876,119.0,34.71012759208679,14875,216.1121898803711,20388.59846875,6.5808378562927246,6.648686414718628,-280.8422275119358,-0.17323380265207516,-0.09566854472671237,0.14014589905257147
119,679.978248928384,120.0,34.51248526573181,15000,235.28489392089844,20899.726828125,6.79332381439209,6.7778151416778565,-284.45830658943424,-0.1052281045685372,-0.09622090249772995,0.14110967141130082
120,826.3020549833271,121.0,34.88912630081177,15125,213.46783380126953,21472.400515625,6.786305131912232,6.749231592178345,-288.2382560608879,-0.16074909642338753,-0.09846638722552194,0.14211162896299193
121,783.4531109446873,122.0,34.57053875923157,15250,209.07978149414063,21877.871921875,6.402416711807251,6.4770303840637204,-291.28077746975805,-0.13504404358325467,-0.08442226442838868,0.1430135816729175
122,787.0929630063947,123.0,34.5287721157074,15375,216.70424768066405,22337.58075,6.737739711761475,6.767461069107056,-294.5312005905878,-0.12213952183013871,-0.08476918341503256,0.14385334365841856
123,743.2190832978463,124.0,34.46678948402405,15500,186.85286413574218,22998.258875,5.899930875778198,5.827983213424683,-298.1814206031061,-0.13437739173851668,-0.07622966071170184,0.14466398094290595
124,750.6620122453232,125.0,34.65198612213135,15625,207.3782682495117,23348.288703125,5.86983024597168,5.847898851394653,-301.16317361498636,-0.12192386273472082,-0.07908670586489495,0.14550698010784355
125,754.790876215292,126.0,34.48452830314636,15750,203.8998758544922,23741.834,5.875016658782959,5.825907510757446,-302.78131349625124,-0.11343671624819117,-0.07759532891213894,0.14632031148189287
126,741.321006855887,127.0,35.18095064163208,15875,175.4894546508789,24437.740109375,5.601916296005249,5.591840551376343,-307.531255812872,-0.1086293500922029,-0.071932691814644,0.14706714441532162
127,762.6428451496545,128.0,34.478076457977295,16000,188.16009716796876,24806.857234375,5.689276647567749,5.630020999908448,-310.947517641129,-0.1612189407310178,-0.0840130262677708,0.1479155673883143
128,825.783338787942,129.0,34.66068434715271,16125,185.02896697998048,25195.22515625,5.575513460159302,5.576665842056275,-313.8503132169209,-0.0938851090059394,-0.07694734916800544,0.14878096095613522
129,756.1749232542358,130.0,34.450591802597046,16250,186.88336749267577,25771.842546875,5.39131137084961,5.402719717025757,-316.5889395436933,-0.15213674715449732,-0.07786742414558126,0.14961786220747553
130,734.6196773274509,131.0,34.479400634765625,16375,188.01060247802735,26307.831,5.556176795959472,5.5980619487762455,-320.5199182903956,-0.14872754595818974,-0.06987120039642804,0.15042474269811743
131,807.9839382840902,132.0,34.44587540626526,16500,158.53620086669923,26735.696328125,5.070586812973023,5.138809602737426,-323.7736097766507,-0.1527735598745846,-0.0694882205176738,0.1512015101572162
132,751.0665961539476,133.0,33.50281047821045,16625,152.9636982421875,27408.011890625,4.7667168674469,4.7605946788787845,-327.0256735181052,-0.136545045035226,-0.06829967828733581,0.1519609375567796
133,764.2502762611668,134.0,34.7717719078064,16750,163.94902764892578,27763.61903125,5.089738967895507,5.059434204101563,-328.7005201770413,-0.11656649428750238,-0.07431004845326947,0.15275354940194072
134,745.9475713826663,135.0,34.862191915512085,16875,163.8066596069336,28197.654640625,4.786189315795898,4.7080062370300295,-332.0629194955977,-0.15107347647703828,-0.07277398946739379,0.15360922478389386
135,750.8122024571029,136.0,34.47961711883545,17000,151.6298491821289,28778.093984375,4.614658329963684,4.657949228286743,-335.38081458307084,-0.13588995696796524,-0.06928661395044576,0.154426749029316
136,734.977250197903,137.0,34.98117661476135,17125,160.2529663696289,29216.01553125,5.071430212020874,4.979762033462524,-338.0122327047681,-0.1157990170140115,-0.0717265826487352,0.15528115788109367
137,745.7204778958907,138.0,34.629995346069336,17250,170.31433563232423,29686.5185625,5.3149007396698,5.310457576751709,-340.9998843285345,-0.2019161130151441,-0.07095501806226469,0.15611921832629364
138,825.3090814664752,139.0,34.863201379776,17375,158.8450264892578,30153.095859375,4.971680187225342,4.897341424942017,-344.2157360258557,-0.1444616201555445,-0.06760102093574547,0.15693986178866864
139,762.6847494453009,140.0,34.365981340408325,17500,164.29187713623048,30654.422828125,4.744672256469727,4.766913751602173,-346.7783404934791,-0.1336575229201586,-0.05852203978405845,0.1577133290784165
140,759.5672207843235,141.0,34.608275175094604,17625,156.85064654541014,31255.04353125,4.584610821723938,4.561146996498108,-350.0601312546503,-0.13014152084314634,-0.0667011710475125,0.15846066192677732
141,745.5817282175974,142.0,34.270989656448364,17750,152.38239385986327,31553.0191875,4.766687377929688,4.7316434965133665,-351.62726666850426,-0.18163361346289034,-0.06998359219681832,0.15933309967362724
142,740.3364090310031,143.0,34.64816665649414,17875,137.62312719726563,32138.29653125,4.3960838108062745,4.401061260223389,-354.6791774204799,-0.1119237911724855,-0.060180475077931846,0.1601711894357816
143,731.0035356704986,144.0,34.40190553665161,18000,144.55429998779297,32600.154265625,4.138245232582093,4.131495301246643,-358.1509714434224,-0.1986919807931108,-0.06975751033713741,0.16101365941844908
144,835.8398851500857,145.0,34.775519609451294,18125,132.82299627685546,33085.989015625,4.2039034385681155,4.131615827560425,-360.786614312066,-0.1352354237248027,-0.06232864483599625,0.16186155128199095
145,759.1622567923527,146.0,34.61137628555298,18250,163.06658813476562,33518.472390625,4.692024723052978,4.643674877166748,-363.08460407872354,-0.14004067181339186,-0.06643609846791913,0.1627574179886288
146,765.1898503444996,147.0,34.64920902252197,18375,174.06956829833985,33979.353203125,5.0699898109436035,5.111345083236694,-365.08471534365697,-0.1622178852262478,-0.06366691336272255,0.16355722611205892
147,837.1834953924522,148.0,34.54026699066162,18500,143.09794909667968,34494.8336875,4.110317184448242,4.131850531578064,-368.56082251764116,-0.05532803822068438,-0.05775547062888021,0.16441165302526625
148,704.31979214492,149.0,35.12983727455139,18625,156.01412438964843,34943.48415625,4.752845579147339,4.775005506515503,-370.7367631215898,-0.22192890072862306,-0.07805704692053417,0.16529989816687599
149,818.9032401014543,150.0,34.35869574546814,18750,139.43290893554686,35473.93625,4.375171261787415,4.3098175916671755,-372.7156632946384,-0.13671268633897266,-0.06374565163447012,0.16629588458493186
150,755.7734728230223,151.0,34.62194752693176,18875,144.0067216796875,35893.3400625,4.451623058319091,4.383319620132446,-375.827151343936,-0.16130585885710186,-0.07149232102055399,0.16719402457005167
151,730.2192033087969,152.0,34.318989276885986,19000,141.35151388549804,36435.748875,4.024236457824707,3.9165087633132933,-378.4185579361454,-0.1254625883434088,-0.06508873490196082,0.16816840711355216
152,731.2181899076082,153.0,34.49929332733154,19125,148.51216693115234,36824.72490625,4.199852097511291,4.247052491188049,-381.01507471478175,-0.07405257189557665,-0.06157167521970613,0.16905155098905714
153,755.8698730567621,154.0,34.313498735427856,19250,142.09247900390625,37390.76728125,4.336454248428344,4.301268313407898,-384.16076118715347,-0.12127611563811379,-0.05704856304932506,0.16990749098566335
154,756.0304986547516,155.0,34.821340560913086,19375,149.96723272705077,37837.31446875,4.308535967826844,4.243500973701477,-385.6156848725818,-0.13555795557442166,-0.05646371220548948,0.17072526931757454
155,827.8504693689468,156.0,34.3293035030365,19500,148.61601623535157,38194.17184375,4.5802042169570925,4.650568880081177,-388.23270686980214,-0.10383713587878211,-0.06272179381020608,0.17157637633833034
156,750.2074573405364,157.0,34.62010216712952,19625,152.17542395019532,38589.1935,4.4394779901504515,4.3968708648681645,-390.3290279327877,-0.11537405966766297,-0.053048122615095165,0.17247041310640487
157,804.4703683271224,158.0,34.82304906845093,19750,154.78709130859374,39282.27871875,4.523631081581116,4.484248184204102,-393.46331836331274,-0.15236636791979113,-0.04821785929943285,0.17325617891125208
158,794.7776285640149,159.0,34.94807505607605,19875,157.88343963623046,39628.972625,4.4085818271636965,4.337293704032898,-395.2921622140067,-0.12627616563131885,-0.0554606540660773,0.17398721780747492
159,823.3461131033176,160.0,34.426032304763794,20000,138.1838920288086,40284.83371875,4.137704030990601,4.1041170663833615,-398.9646783644153,-0.09005329427459548,-0.05145190043314811,0.17485352386659458
160,743.5532382332791,161.0,36.799869775772095,20125,153.5343074951172,40523.3889375,4.3349293575286865,4.417703640937805,-399.70421442909844,-0.19834525646671416,-0.05680867160360018,0.17568940289835597
161,681.0221664870068,162.0,32.754992961883545,20250,135.2392249145508,40969.595375,4.005287034988403,4.008001796722412,-402.47460445280996,-0.14647864940906724,-0.053450943391409614,0.176579618774286
162,837.1254026453981,163.0,34.65436577796936,20375,137.90071365356445,41535.16346875,3.8486577749252318,3.8258621644973756,-405.4267820328001,-0.13924956845030897,-0.05784244570762865,0.17752483577999761
163,806.4237390333853,164.0,34.59864544868469,20500,154.7477553100586,41791.33571875,4.63261954498291,4.612015087127686,-405.5120455834173,-0.13764601170776353,-0.04900521587490315,0.17839603673752735
164,820.5560947165184,165.0,34.63881850242615,20625,159.87711083984374,42385.86365625,4.602696473121643,4.513914283752442,-408.7964007665241,-0.017401670445761984,-0.04369143404746576,0.17919029524218702
165,774.6213181507105,166.0,34.57604694366455,20750,127.59730279541016,42853.85178125,3.804386301994324,3.807655159950256,-410.94000441028226,-0.159455411346449,-0.046078486307974786,0.17984033788574144
166,766.1089638465786,167.0,34.888927698135376,20875,137.9290464477539,43309.3104375,4.313253558158874,4.343315380096436,-412.7288411458333,-0.10092933138921148,-0.052197175418278056,0.18074634428269704
167,832.6206539885886,168.0,34.32044982910156,21000,147.70512255859376,43709.2266875,4.306087655067444,4.370827387809753,-415.3870332779423,-0.16170574400213458,-0.05403193651187804,0.18167726490025668
168,824.1167190867448,169.0,34.47577738761902,21125,153.70263037109376,44244.74640625,4.523236752510071,4.542720350265503,-417.9916730608259,-0.22054583292513613,-0.05383560405896297,0.1826129443552344
169,756.2396237337842,170.0,34.48647618293762,21250,141.40040420532227,44831.702625,3.8938322744369507,3.8497000064849853,-419.4776645783455,-0.013338572495887357,-0.049018477893344334,0.1835135796009412
170,744.4980455574596,171.0,34.618539810180664,21375,132.56422302246094,45273.8406875,3.9697655210494993,3.9238224258422854,-422.257072327629,-0.11455887848777431,-0.0450453290656682,0.1843852863405543
171,746.3937733080571,172.0,34.45080518722534,21500,139.06645141601564,45482.55925,4.085503454208374,4.063179798126221,-422.9449994487147,-0.10337495942029261,-0.04541639289668491,0.18519697089579337
172,807.7905173631374,173.0,34.78288245201111,21625,145.5435881958008,46114.50284375,4.134670571327209,4.066853692054749,-426.57375081380206,-0.09138587232501734,-0.04281902167620876,0.18603066704354881
173,836.2593686605044,174.0,34.57346868515015,21750,135.54350732421875,46603.090125,4.2371910238265995,4.212064016342163,-429.6034737863848,-0.12341171863578981,-0.03397179606010116,0.18673251636197813
174,813.6905991247116,175.0,34.631006956100464,21875,152.85142114257812,47147.94525,4.229272261619568,4.128745933532715,-431.1531255812872,-0.0812951076539263,-0.0384578035390448,0.18744414704355505
175,748.8729179518365,176.0,34.360950231552124,22000,148.8575089111328,47376.15778125,4.084988610267639,4.086516084671021,-432.2761722687752,-0.03323902931785391,-0.0450623024014696,0.1882733026041208
176,727.6238012977218,177.0,34.56870913505554,22125,140.62768353271485,47935.24671875,4.096035536766053,4.090267333984375,-434.66882857065355,-0.11389197382543768,-0.04815066622067538,0.18922985026520153
177,755.248883244349,178.0,34.358248472213745,22250,133.8295655517578,48361.73009375,4.001431941986084,4.013377885818482,-437.15600093718496,-0.14653872914852634,-0.03929626780201591,0.19008074794384713
178,753.0761304252904,179.0,34.75016450881958,22375,137.0246076660156,48910.11115625,3.8568437757492067,3.8687931060791017,-439.76644752139134,-0.10136530997734221,-0.03907054304958336,0.1908502861774615
179,809.3314720695479,180.0,34.47448945045471,22500,145.19094485473633,49187.95959375,4.22111025428772,4.164074337005615,-441.57623044906126,-0.10941830043110155,-0.031878945537872856,0.19154811068301744
180,684.6456016593372,181.0,34.57075572013855,22625,131.31804388427733,49478.80865625,3.9580696392059327,3.972078553199768,-441.49902973477805,-0.065927963526476,-0.04403055945618285,0.1923722659372977
181,753.6484908874266,182.0,34.628857135772705,22750,138.95447924804688,50038.02925,3.8762537851333616,3.7828486814498903,-443.93291645665323,-0.07980841488367127,-0.029878086027418895,0.19318604379558443
182,769.7016503782916,183.0,34.65105891227722,22875,136.34377407836914,50639.32153125,3.6984095249176026,3.7175707397460935,-447.64659433516243,-0.07434042034641145,-0.039691370793633045,0.1939490178008474
183,810.1466629523128,184.0,34.384761571884155,23000,127.04872842407227,50895.4914375,3.6829486541748047,3.7158054618835448,-448.67298544606854,-0.07291388794058754,-0.041304330476709915,0.1948720360656871
184,814.0358134763638,185.0,34.91651129722595,23125,128.29170397949218,51334.68978125,3.6128501329422,3.5870035219192506,-451.0721735878596,-0.12131370799172492,-0.03531856218441611,0.1957119504286403
185,837.5980314234706,186.0,34.398852586746216,23250,126.6340055847168,51964.57553125,3.705423377990723,3.7217086629867553,-453.98259858162174,-0.11994564705978959,-0.02912373354868783,0.1964280790949931
186,726.513718402095,187.0,34.67624521255493,23375,144.43107537841797,52371.2096875,3.8252154483795167,3.886957155227661,-455.344236343626,-0.06572971853708463,-0.03449523978910986,0.19714776537442089
187,770.9717173552594,188.0,34.41949534416199,23500,127.00854138183594,52575.737625,3.7023015298843385,3.723463785171509,-455.48758229901716,-0.023254860733305256,-0.046093534099899476,0.198058677691486
188,811.2105647708704,189.0,34.78829550743103,23625,159.46714407348634,53083.6281875,4.15064797782898,4.120926113128662,-458.56072707403274,-0.01510087311977432,-0.030092944856733084,0.1989544341772
189,706.5905571961584,190.0,34.365097761154175,23750,130.77358868408203,53737.42809375,3.558293797492981,3.5144693460464476,-461.54542590725805,0.029602530322247935,-0.020695790096426442,0.19965040264338518
190,814.1644350423577,191.0,34.980682611465454,23875,116.86367837524413,53838.74540625,3.4761497621536255,3.4155001916885377,-461.50038364955356,0.01304509857344249,-0.013429810219104327,0.20005994864171353
191,642.7019115368329,192.0,34.54413151741028,24000,122.46598385620118,54584.055,3.578623818397522,3.566159331321716,-464.67076652280747,-0.1223707879863439,-0.020715414561451442,0.20038027080555137
192,790.4863940048282,193.0,34.77208399772644,24125,124.92151077270508,54782.0985,3.776820990562439,3.756867241859436,-465.7791462247334,-0.013153841216412802,-0.03129179183659809,0.20112426840964856
193,779.3352757353563,194.0,34.34757208824158,24250,130.36489193725586,55157.3698125,3.565573709487915,3.581608221054077,-467.2188641948085,-0.08802899904549122,-0.027108331627753234,0.20187381299393098
194,799.8706266576625,195.0,34.6737699508667,24375,124.66269012451171,55610.79978125,3.4750063867568968,3.5140808191299437,-469.4891318669395,-0.029062610622199756,-0.01670172880034125,0.2024677871174809
195,777.6211868329874,196.0,34.36834979057312,24500,110.69050814819336,55965.60121875,3.4231983385086058,3.456504720687866,-470.6781793409778,0.009735775811056937,-0.015581554560471446,0.2028641999381467
196,727.1159971967396,197.0,34.69126343727112,24625,131.95497500610352,56452.80296875,3.549203712463379,3.5980660724639892,-472.71495758541045,-0.010906011191388917,-0.03177940416046315,0.2035426133555405
197,745.3181199328338,198.0,34.31927943229675,24750,130.33557415771483,57075.7603125,3.6523143787384034,3.6696407098770143,-476.1894969324912,-0.09623140228852149,-0.02661321029036997,0.2042509986398047
198,821.5484994859513,199.0,34.660228967666626,24875,124.36366387939454,57131.280375,3.5589361333847047,3.534867594718933,-475.0682101779514,-0.050066025306781135,-0.025380560706946113,0.20509001490294693
199,802.9093963824258,200.0,34.400962591171265,25000,120.1271212463379,57724.9993125,3.4626135835647585,3.4570434198379516,-479.19701902328,-0.08866050839424133,-0.02013686317349634,0.2057483949433522
200,829.9210006716912,201.0,34.615718603134155,25125,125.86015957641601,58143.64171875,3.490164298057556,3.395895320892334,-479.6375872899616,-0.029912059683175313,-0.019056492448148745,0.2062369498468715
201,742.9084817018752,202.0,34.34303855895996,25250,119.19891394042969,58586.28828125,3.467004294395447,3.523348104476929,-481.4938211748677,-0.050768771779633334,-0.02583693936392064,0.20693541312344896
202,764.439301346295,203.0,34.74035143852234,25375,121.85990353393555,59092.20971875,3.4134134407043457,3.3518703346252443,-483.96163262261285,-0.08268516936472484,-0.01866706428561537,0.20759762514374175
203,758.0375930329762,204.0,35.10425162315369,25500,125.77107897949219,59320.4940625,3.286294722557068,3.2628290615081785,-484.8645964591734,-0.059872702304874695,-0.022428603621289855,0.20821062046297448
204,802.5171625766465,205.0,34.853506565093994,25625,115.28686001586914,59970.067125,3.2349421586990355,3.1326654348373415,-488.1725841703869,0.007135554704637755,-0.011468473378391493,0.2087830818848678
205,764.739726106233,206.0,34.36670279502869,25750,126.36288729858398,60338.1414375,3.567316514015198,3.4139031772613526,-489.236824281754,-0.03498571501263688,-0.009985322925081898,0.2090687950123408
206,812.4120782296976,207.0,34.538769483566284,25875,118.6239150390625,60684.34234375,3.37027249622345,3.338480975151062,-490.9866783505394,-0.06083506124005431,-0.012912109287248718,0.2095257301408691
207,722.0288490848488,208.0,34.45133972167969,26000,113.85021621704101,61098.84459375,3.0528157501220705,2.926013963699341,-492.14766077841483,-0.06544213519702034,-0.019851179973733042,0.21002019299697913
208,767.0670545660907,209.0,34.64019060134888,26125,107.31365463256836,61604.75303125,3.040112913131714,3.0703652219772337,-494.38499717106896,-0.00479646630230404,-0.019398457777228147,0.2107251466908096
209,818.739288327081,210.0,34.48175024986267,26250,113.79126461791992,61905.49,3.1969041175842285,3.191275185585022,-495.4697930120653,-0.047213232324969386,-0.025972758990622336,0.21134957566620324
210,756.7701700277854,211.0,34.53136444091797,26375,121.15733972167969,62091.386,3.3552935791015623,3.320398832321167,-496.50377303834944,-0.060056970587798526,-0.019726974213318454,0.2121621815310756
211,661.7940736713465,212.0,34.511080265045166,26500,109.89801013183593,62572.87921875,3.1638823347091676,3.160628225326538,-498.583987820533,-0.046134605192609375,-0.017191548437450924,0.21278219887056818
212,772.8591649033464,213.0,33.906556129455566,26625,128.33462860107423,62927.01321875,3.011481972694397,2.988094920158386,-499.12155102926585,-0.03708676656796819,-0.012963266012125782,0.21330350871465065
213,811.8342895974724,214.0,34.77537226676941,26750,121.76197442626953,63458.85365625,3.152226470947266,3.09041641998291,-501.67293966970135,0.02840590531066541,-0.008466567889216446,0.2136378768343747
214,753.0283227274136,215.0,34.787474632263184,26875,122.55451635742187,63639.53975,3.144068365097046,3.120325489997864,-502.83360799153644,0.017273848610264913,-0.010158506606424611,0.21399019283708381
215,742.1196831014247,216.0,34.795668601989746,27000,131.52294671630858,64090.9508125,3.5390669193267823,3.5279210834503174,-504.4634748889554,0.0043611180998625295,-0.014360641046697575,0.21447220077372958
216,755.8373864269043,217.0,35.014119386672974,27125,108.36142309570313,64497.61815625,3.1401270513534545,3.064360447883606,-506.6161610436818,-0.04697761888660136,-0.014129464174546892,0.21498924452464357
217,741.716133615507,218.0,34.642249584198,27250,104.9326487121582,64898.9555625,3.0513243188858032,3.0824010171890257,-507.1554909982989,-0.04737046078568505,-0.017919629500547964,0.2155878222704545
218,789.5307219078309,219.0,35.20404243469238,27375,107.7185636291504,65218.008375,2.923053451538086,2.859648449897766,-508.4689335898748,-0.07772493457037305,-0.012882486599246188,0.21607878733509156
219,794.4574442790595,220.0,34.351097106933594,27500,117.94639666748047,65532.59909375,3.4655975999832154,3.490158452987671,-509.65464930380546,-0.01958692248069471,-0.014795933151617646,0.21672370056191612
220,768.9470841522946,221.0,34.53202152252197,27625,115.34851364135743,65976.7965625,3.0995941047668456,3.060161485671997,-511.7553182934958,-0.0416485747056348,-0.009569554852085218,0.21721130533469532
221,827.5236301372735,222.0,34.25206971168518,27750,112.34434091186523,66144.22759375,3.1916633377075194,3.1757550706863404,-512.447014593309,-0.03313141093859749,-0.013869085882399832,0.2175710922259287
222,819.9912533634907,223.0,34.82843565940857,27875,109.67725265502929,66736.2783125,3.013652015686035,3.032654359817505,-514.5436386835007,-0.020746151665373455,-0.0008349423961980003,0.21788478289152047
223,741.7185083842722,224.0,34.32184052467346,28000,111.10033551025391,67185.58296875,3.1512428350448607,3.139781265258789,-516.0140956755607,-0.022830342513418967,-0.011261896365472385,0.218149104993488
224,816.024137643345,225.0,34.69220781326294,28125,113.85821911621093,67471.97990625,2.9628511762619016,2.924189791202545,-516.9029778374565,-0.07505710792565157,-0.021532113715592358,0.21874480700668286
225,822.943552021042,226.0,34.54641771316528,28250,107.48181176757812,67918.57528125,2.9221892080307006,2.871027523994446,-520.0672297323904,0.005607811193312368,-0.0016529497975904133,0.21911145851147396
226,814.2867791283782,227.0,34.55765962600708,28375,116.24283026123047,68059.297,3.0022128591537474,2.969949472427368,-519.9081740606399,-0.02657152174247636,0.0020446208239133868,0.21921898438592938
227,813.4666306940666,228.0,34.69754672050476,28500,115.04883596801758,68660.446,2.984635234832764,2.9970003976821897,-521.4518398161857,-0.01788123597901675,-0.0010299211660880715,0.21919729007565839
228,824.5416092417762,229.0,34.64227890968323,28625,114.81542971801758,68820.5749375,3.036524923324585,3.060968777656555,-523.5970856197297,0.0007544837832923919,-0.0031800538390165285,0.21933040342571966
229,816.9975424028828,230.0,34.470388889312744,28750,117.7203108215332,69161.5696875,3.0368899421691893,3.062337766647339,-523.8639851231729,-0.021997179054925518,-0.008219527448677728,0.21952358871191635
230,840.1046424021525,231.0,34.72676658630371,28875,110.95510021972656,69673.3595625,3.0135598039627074,3.0193915195465086,-525.8343157087054,-0.05442543239110992,0.0003357817056692309,0.2197042086785367
231,825.1580516309607,232.0,34.451823472976685,29000,104.8886689453125,70132.563,2.8301548109054564,2.8425468215942384,-527.2770464497228,-0.04451641446400073,-0.0024522016981556533,0.21967338113854099
232,809.8070691327708,233.0,34.65541195869446,29125,110.66807592773438,70412.022125,2.828805576324463,2.777813259124756,-528.9647139291915,-0.07171380921961769,-0.012420363369442168,0.21992243053408198
233,836.0394609142313,234.0,34.56122398376465,29250,129.49417639160157,70809.221,3.442452300071716,3.473032380104065,-530.9854047221522,-0.0031640532937261367,0.007482839924764008,0.22023613387414123
234,836.1333450963698,235.0,34.65183687210083,29375,120.47155477905274,71018.261375,3.0383891277313233,3.079308857917786,-530.6709275018601,-0.006542357364817271,-0.007511441669766865,0.2201418556297328
235,812.5514608515883,236.0,34.40343880653381,29500,102.92288128662109,71409.5161875,3.0736571321487425,3.0601448011398316,-532.5701254567792,-0.048042405486827894,-0.0010980416254530992,0.2204113941231732
236,734.7589033323017,237.0,34.69075798988342,29625,121.08674667358399,71974.8979375,3.355375192642212,3.3295736179351807,-535.2506365094866,-0.028551500113237472,0.0024969659760476107,0.22047823748772286
237,757.684753831755,238.0,34.69303345680237,29750,111.07617260742188,72519.5761875,2.761964831352234,2.7812314825057984,-537.0798064201109,-0.022889571564812815,0.007918642563444952,0.22006099985804156
238,825.3723186881615,239.0,34.61367106437683,29875,109.999359375,72674.1980625,2.7892786588668823,2.8351093282699584,-537.6544237893726,-0.019766923468855637,0.006342024668045934,0.21975094665634684
239,770.0270858394612,240.0,34.416152000427246,30000,105.41993395996094,73171.6885,2.7613746795654297,2.795582839012146,-539.3856949344759,-0.01008082439582194,0.001480521645487076,0.21959320230049842
240,820.1693544708379,241.0,36.68716478347778,30125,105.93893334960937,73481.5970625,2.9397275171279906,2.8780675897598265,-539.8095431857639,0.0017269840907482873,0.008467089118702071,0.21949901102459818
241,824.7102789970068,242.0,32.55136060714722,30250,100.60801541137695,73595.3330625,2.863832684993744,2.8750812792778015,-540.6092647429435,0.011236448381696977,0.001745756565322799,0.21910464368197716
242,727.9944218217672,243.0,34.57635831832886,30375,97.95709698486328,74213.530875,2.682027129173279,2.698682864189148,-543.03759765625,0.005843177467348084,-0.013090486556942027,0.21937219349980294
243,824.095202788865,244.0,34.50961136817932,30500,108.5382387084961,74634.3119375,2.9883297872543335,2.987041874885559,-544.4296294181578,-0.04125584848225117,-0.01192453961759325,0.2198803894184533
244,726.7569387722157,245.0,34.64337086677551,30625,110.0868042602539,74943.6805,2.9533049116134644,2.95300680065155,-545.9185471307663,0.0006800351280068594,-0.0032169543602134265,0.22038767030254672
245,833.7947868962452,246.0,34.46196627616882,30750,108.64178973388672,75197.6281875,3.015547878742218,2.9608260746002197,-547.1328981461063,-0.09593303790015559,-0.0010258648957636569,0.22036159977492803
246,819.9037566713433,247.0,34.59926104545593,30875,108.04220968627929,75644.630375,2.982385600090027,2.9120535669326784,-548.1486244807168,-0.0318139861559584,-0.007266494829858106,0.22067740881991119
247,737.7511424478237,248.0,34.54065752029419,31000,109.76377075195313,75903.6970625,2.911203089237213,2.981335652351379,-549.9161751039567,-0.016706112231458386,-0.003421554567232247,0.22085623724310985
248,811.9578415455924,249.0,35.265708684921265,31125,111.32415869140625,76247.5484375,2.962941038131714,3.0148964710235595,-550.0779854910714,-0.002529044472982013,-7.794716853707556e-05,0.2210544019965063
249,746.6340649322965,250.0,34.431984663009644,31250,108.86866665649414,76559.172375,2.777340845108032,2.756372194290161,-550.8825151997228,0.04000065070126326,-0.00042018441543463736,0.2209554480335474
250,824.0895490162432,251.0,34.64459490776062,31375,111.95904623413085,77207.521625,2.97321301984787,2.981938102722168,-553.5533166310144,-0.03990977414188877,0.009493479682576089,0.22083783233120213
251,821.5193694451609,252.0,34.46633815765381,31500,111.55443063354492,76983.8734375,2.9738412880897522,3.0215400190353394,-553.2782671528478,0.0674424871441818,0.007348613175112874,0.2204498167762023
252,765.5841628826058,253.0,34.87949895858765,31625,115.78256735229492,77620.1854375,2.805798982620239,2.831767382621765,-554.8571360754588,0.04879624801613982,0.006247085918273244,0.21986630217941533
253,818.0398855797415,254.0,34.52672815322876,31750,97.88638415527343,78171.086,2.759394226074219,2.7030364623069763,-556.878915109942,-0.047214233346523776,-0.0060617182696718844,0.21989103334409973
254,830.0905401989218,255.0,34.552998542785645,31875,112.36542575073243,78320.418625,2.8952355279922486,2.8513029651641846,-558.4052036830357,-0.08324189478206256,-0.008158140483179263,0.22027608041396002
255,800.0922947951586,256.0,34.5105082988739,32000,108.24681069946288,78633.9278125,3.0229411182403565,2.995048493385315,-559.4064714985509,-0.027303199433991985,-0.00028658829509250577,0.22046991452092862
256,831.4398306181101,257.0,34.57376194000244,32125,119.73923828125,79083.6139375,2.7864000577926635,2.819810212135315,-561.1733291868179,-0.03286431540572454,0.004863244688345326,0.2204646217717659
257,825.2255404565038,258.0,34.372783184051514,32250,98.90825820922852,79405.7918125,2.637270941734314,2.602893333911896,-561.5013791976437,0.08632466839926858,0.008793957501409514,0.22029594414416293
258,803.7177984453663,259.0,34.99110007286072,32375,96.74651162719726,80022.908625,2.7983131432533264,2.772362458229065,-563.8203347826761,0.018362612714843143,0.010336928465034045,0.21960092879749243
259,723.4730040527274,260.0,34.56589388847351,32500,115.34601110839844,80179.475375,2.6939446144104005,2.629789776802063,-564.2091655115927,-0.049544687533090194,-0.006583689877222623,0.21956192088356674
260,831.9405110117832,261.0,34.72398066520691,32625,115.2464231262207,80509.3580625,2.7379462728500368,2.7446497259140012,-564.8665742420014,-0.014980107900642213,-0.000688030691226087,0.2197709102764653
261,824.8562851719134,262.0,34.69820857048035,32750,97.80010972595215,80696.3699375,2.5942032384872435,2.6174495134353637,-566.3837093230217,0.030171486789420728,0.004463535312923693,0.2197981117034723
262,828.7215795836667,263.0,34.552831411361694,32875,101.82867346191406,80879.886875,2.8709170303344727,2.910647357940674,-567.5916292705233,0.007519489242917015,0.00415741829645066,0.21941534328008805
263,836.8887700554172,264.0,34.494298458099365,33000,119.12359826660156,81646.6356875,2.629344934463501,2.636389934062958,-569.8646949029738,-0.024005643182223844,0.01587631382919367,0.2191001989677288
264,817.7250313684445,265.0,34.4703733921051,33125,96.83044049072265,81513.3674375,2.5115940866470337,2.526440149307251,-568.9668152824281,-0.015108057342114904,0.010514538565147964,0.218307956006021
265,821.8402952783207,266.0,34.56705093383789,33250,100.63055319213868,81830.5385,2.630827874183655,2.590826675415039,-570.5105443154612,0.004858087147435834,0.004891766956256282,0.2179439982884643
266,734.4302832387554,267.0,34.809032678604126,33375,106.43356710815429,82271.9394375,2.5556424713134764,2.5610643186569213,-572.4716535295759,-0.060159112371149515,0.0003938895709339588,0.21784895074894414
267,826.6359729528549,268.0,34.628084897994995,33500,101.5152174987793,82749.8058125,2.7104492363929746,2.682574305534363,-574.1536707724295,-0.011055695974538404,0.007101254965809565,0.2176090196131523
268,820.1675696327915,269.0,34.625924587249756,33625,105.21741268920898,83148.2233125,2.7626460361480714,2.748354696273804,-575.1722935267857,-0.008451591526705122,0.0014183701326449711,0.21751599429163224
269,749.9048811684565,270.0,34.38877892494202,33750,107.35734313964844,83160.1270625,2.778741008758545,2.759397334098816,-574.9824671591482,0.01647110304404651,0.008324155328615059,0.2172846814462189
270,822.8613173261529,271.0,34.665382385253906,33875,97.01058850097657,83739.2825625,2.313924957752228,2.328729148864746,-577.1905381944445,-0.02737021842409694,-0.0026022676629797806,0.21721291753471286
271,814.5378741331014,272.0,34.50783729553223,34000,104.08412399291993,83864.78575,2.6476133279800416,2.62634886264801,-577.5423160676033,0.02061748669873322,0.006104489067389119,0.21703198114762398
272,825.6339284987919,273.0,34.811991691589355,34125,96.75828857421875,84241.501125,2.4354024276733397,2.372484302520752,-578.4058770073784,0.05735869631762543,6.573023422369881e-05,0.21695775430374722
273,751.3015175978524,274.0,34.39345407485962,34250,91.5079021911621,84673.265125,2.517462019920349,2.4978137760162356,-581.1150601294732,-0.0012970742499155382,0.012683010810325223,0.21649762098069314
274,832.5456739536718,275.0,34.5625319480896,34375,93.26158447265625,85036.2640625,2.357504468917847,2.359651237487793,-581.09375,0.0033643153451737903,0.00688681047823694,0.21606763027461673
275,832.2719424147033,276.0,34.46205115318298,34500,112.62937942504882,85059.317125,2.7495221672058103,2.7369943890571595,-581.8302336662047,-0.0056671318297664966,-0.005462607162283553,0.2160657872957589
276,816.4099903790209,277.0,34.58968639373779,34625,92.79885717773438,85684.0710625,2.4924941158294676,2.4605739603042602,-583.4103858584449,-0.06986817575636364,-0.002444735462112086,0.21627599381632853
277,755.1219537211337,278.0,34.55374598503113,34750,93.52876303100587,85689.10925,2.668787546634674,2.6407964553833008,-583.8379624889743,0.004876562153860446,0.0028430532641528596,0.21631547613015267
278,759.8710180797924,279.0,34.56416988372803,34875,100.86413160705567,85917.487,2.7624608068466188,2.700073464870453,-584.3919929625496,-0.0352208355944308,-0.001683436141955474,0.21624626525606583
279,830.3004145398559,280.0,34.41994762420654,35000,104.24554446411133,86583.9295625,2.693130404472351,2.6872845344543457,-586.852786156439,0.040225331641493306,0.004960037756621117,0.2163092527673686
280,824.7808994620485,281.0,34.720338582992554,35125,106.7377511291504,86775.0615,2.7246831722259524,2.6896957206726073,-588.1130797371031,0.012080327533776797,0.015147782932405197,0.21564326774240897
281,821.581470934206,282.0,34.46071910858154,35250,106.72539358520508,86847.302,2.775607804775238,2.7765093421936036,-587.7491966985887,-0.013157127244818595,0.011246091273102549,0.21504858601037652
282,831.6591192185374,283.0,34.817758321762085,35375,92.57911508178711,87330.5645,2.7038107423782347,2.6894674377441405,-589.8183835953001,0.03182520167458625,0.0012007682872492644,0.21479131900290332
283,817.682827885044,284.0,34.29915428161621,35500,97.55094589233398,87548.74,2.585420521736145,2.638183614730835,-590.6122210102696,-0.028518822464731433,-0.0076027985572093915,0.21482822249409658
284,813.6128830410446,285.0,34.506404399871826,35625,97.84501498413086,88005.992625,2.508599437713623,2.421703489780426,-591.7534644717261,0.005652117794231763,0.008916982767423467,0.21502697744132138
285,826.14438933878,286.0,34.43616795539856,35750,100.13932284545898,88170.890625,2.5795886611938474,2.560100914955139,-592.082019436744,0.002430449960933578,0.0006139399333586616,0.21466283917483917
286,835.6073143464869,287.0,34.610353231430054,35875,93.16558746337891,88744.619875,2.4059357509613037,2.440995433330536,-593.8932514493428,0.004090176510905463,0.01129712124118611,0.21433645002367296
287,814.1032035399052,288.0,34.59755349159241,36000,101.21508181762695,89180.6341875,2.2084665884971617,2.2334721660614014,-595.5835896153604,0.07834210736496795,0.012526085739204239,0.21384526266296913
288,826.7410490154016,289.0,34.71629047393799,36125,92.75446054077149,89197.3529375,2.3051990699768066,2.3427274370193483,-595.703855484251,0.005631533022674304,-0.0019141868170764712,0.21363961452624178
289,823.2685998026378,290.0,34.82937526702881,36250,90.38465838623047,89572.5956875,2.4306194458007813,2.3849859957695005,-597.3947232154107,-0.031067788210367004,0.005705322927585052,0.21343212207433543
290,749.6283693662198,291.0,34.5628867149353,36375,90.11897177124024,89678.4586875,2.2319458947181703,2.182319890499115,-597.0192648266989,-0.03018245485330385,0.0006763554466444822,0.21332829742443443
291,820.0069503478744,292.0,34.391841411590576,36500,87.865123046875,90222.309,2.427926257133484,2.3707295875549317,-599.4778658959174,-0.004462338232946011,0.011475886901720397,0.21315417408091222
292,818.2039115864527,293.0,34.99779772758484,36625,89.99429943847656,90278.41875,2.2651377449035643,2.2695088572502136,-599.9943586077009,0.0038542631008322277,0.004436000309411495,0.2126608028034928
293,823.9038469936172,294.0,33.50105571746826,36750,92.18104125976562,90734.10175,2.2641858162879944,2.2539711837768555,-600.8760671307964,0.0071520373345382755,0.009454992766897645,0.21229090402993153
294,807.357107960595,295.0,34.58015537261963,36875,88.91390737915039,90702.555125,2.1906171083450316,2.1853034868240355,-600.3539874364459,-0.06631869059943017,-0.009818956307652924,0.21227130874669187
295,830.9978369087568,296.0,34.564260482788086,37000,92.47581805419922,91155.7643125,2.2633416776657103,2.2388286066055296,-602.0067552135837,0.017607304387755932,0.00652675113205107,0.21247685529723875
296,830.8475310743295,297.0,34.6820924282074,37125,94.0294243774414,91228.596125,2.4386697130203245,2.4472289242744445,-602.2539527529761,-0.0061699071573832675,0.00216614112760576,0.21227241632480748
297,775.2557979702646,298.0,34.758604288101196,37250,93.48688546752929,91546.60075,2.458426343917847,2.4542766313552855,-603.393294795867,-0.00028860388744261957,0.005595303591220609,0.21217777854299133
298,826.3818679726311,299.0,34.7336540222168,37375,106.98766870117187,91856.8078125,2.500769874572754,2.502497808456421,-605.1592707558284,0.023143431674393398,0.00800133696461599,0.21178276796711507
299,803.6318832536087,300.0,34.43650412559509,37500,108.70364822387695,92293.907875,2.5754391469955444,2.5720868835449218,-606.4146246141003,-0.007754462801160351,0.002619893462847798,0.21148758716748903
300,733.1845257085793,301.0,34.887502908706665,37625,90.83343054199219,92664.988875,2.1500588064193726,2.1867349166870116,-607.8634798564608,-0.008008538139244866,0.010926237736370355,0.21129549638271855
301,827.6781689638101,302.0,34.70397925376892,37750,95.4030426940918,92684.5069375,2.2721935358047487,2.286501747131348,-607.5757731776083,-0.045775123931948214,0.006732663935831477,0.21090891427610553
302,840.2028494600835,303.0,34.688236713409424,37875,91.09774282836914,93118.1915,2.313619941711426,2.301560085296631,-609.3764076838418,-0.02244879858243087,0.014927936185683523,0.21026513211627906
303,735.9505104163434,304.0,34.82056713104248,38000,98.21617111206055,93228.227125,2.3844882278442383,2.4041938333511355,-609.4098865139869,0.07212498982346827,0.01395261939239478,0.20957873199959448
304,810.9681452362514,305.0,35.19969081878662,38125,102.1585590209961,93363.11225,2.4276356363296507,2.3591218395233153,-609.8878609793527,0.005878322949958226,0.012803947346078025,0.2091072433136913
305,811.7592435761646,306.0,34.4762978553772,38250,86.63279815673827,93801.48975,2.1979360036849975,2.1488649320602415,-610.3332814862652,0.00011847968844156111,-0.003346617540134297,0.20879816787274336
306,822.703145815601,307.0,34.60124230384827,38375,99.06379776000976,94223.0369375,2.272640759944916,2.2516907291412354,-612.6460455031622,-0.03914201768144729,0.007276835843979839,0.20874859070756888
307,748.1384424286599,308.0,34.6635057926178,38500,96.66629415893554,94285.3145625,2.39778994512558,2.3844653215408327,-613.1131188177293,0.017882182473136533,0.00801024199914067,0.2084936921412947
308,801.7087808250554,309.0,34.886632204055786,38625,89.61502958679199,94599.5451875,2.242450517177582,2.279400327205658,-614.1015847826761,-0.032738452304213767,0.011647111211445123,0.20800772761874978
309,827.6806003442839,310.0,34.57099628448486,38750,84.19972521972656,95147.2459375,2.147405779838562,2.119719382762909,-615.8527349656628,0.036532430549062064,0.010576564300384733,0.2074996221315314
310,825.1395541158647,311.0,34.955456018447876,38875,87.28492178344726,95219.686125,2.191503336906433,2.1549232287406923,-615.9146079411582,0.013202590779179619,0.013910527873252119,0.20678008078119367
311,829.5422102003829,312.0,34.651363134384155,39000,104.1756121673584,95512.2388125,2.16491383600235,2.1163481011390686,-616.5046987225933,-0.06624624944261966,-0.0038417058155661627,0.20665353801865824
312,835.2494163238872,313.0,34.60283422470093,39125,100.19613543701172,95559.2425,2.4383425817489623,2.373846981048584,-616.2387346540179,0.02639238369311132,-0.0026708923812423435,0.20690397726537008
313,830.6807046583209,314.0,34.862119913101196,39250,106.7126671447754,96020.1979375,2.3509836196899414,2.3591182050704957,-618.6022043535786,0.006556967814122477,-0.001281574436072861,0.207006068411929
314,834.9937209903591,315.0,34.55577778816223,39375,88.04852307128907,96196.2515,2.241419184207916,2.2310249004364016,-619.7901514446925,-0.000731733405873889,0.005166518586939053,0.2067171124109056
315,815.4941695412319,316.0,34.625911474227905,39500,98.56520101928712,96520.1275625,2.2480391297340394,2.270419888496399,-620.6082990092616,-0.08877711689039584,0.0002780139235959899,0.2067813867573083
316,829.7918275372554,317.0,34.563244104385376,39625,97.1476526184082,97100.784125,2.328733362197876,2.362012689590454,-621.5254119388641,-0.04619180044484517,-0.0028143453722198806,0.20684089267082068
317,823.6396669969466,318.0,34.451597929000854,39750,74.39544046020508,97245.2058125,1.9888702445030213,2.0167996163368227,-622.3121200069304,0.00322168692946434,-0.0041458259727205,0.2069561662447079
318,831.4969372627065,319.0,34.68126177787781,39875,87.50111892700195,97395.3176875,2.200035871505737,2.207913186073303,-623.2082054501489,0.026846703023664535,0.010134459340146609,0.20693911886953026
319,825.4812380428211,320.0,34.857502698898315,40000,86.01922151184083,97616.746,2.3165398111343385,2.2907034039497374,-623.9911252913937,-0.05532894776232781,-0.004164630637293862,0.2067181813745259
320,833.5317872664698,321.0,36.73947477340698,40125,94.61313150024414,97907.051125,2.189715552806854,2.2057249450683596,-624.7912801106771,-0.04202123054318012,0.005874255435570838,0.2065038685500233
321,835.6595948728097,322.0,32.383705377578735,40250,92.2817774963379,98197.196875,2.3217141761779785,2.3155933580398558,-625.0429579211819,-0.06383036083031085,-0.005718026009778823,0.20663408075999434
322,829.3489340992027,323.0,34.74324321746826,40375,86.73085292053223,98589.0228125,2.154413813114166,2.1170710577964784,-626.6481177920386,-0.06294828691771107,0.002244318011290734,0.20664051000743264
323,825.2644955480059,324.0,34.3221070766449,40500,92.50929751586914,99019.3645625,2.0837746024131776,2.0861671948432923,-628.036364155431,-0.004980041495253963,0.002059106369532885,0.20668791480236823
324,825.2871902597384,325.0,34.58589220046997,40625,98.07997515869141,99060.986,2.2554124488830567,2.2070204248428347,-627.9564499627976,0.00018291352760224115,0.008685049482636036,0.20616003838104868
325,835.7012823975296,326.0,34.466984033584595,40750,89.49768640136719,99285.38175,2.1257779779434203,2.1677974505424498,-629.3498131536668,-0.080194822963207,-0.0003856563595153632,0.20617929830978923
326,837.7775423950037,327.0,34.56724715232849,40875,83.97364622497558,99230.885375,1.952000131368637,1.9610792303085327,-628.1080448211186,-0.0426730534860066,-0.00369940338552826,0.2062730193205705
327,833.9052351179649,328.0,34.40907096862793,41000,75.48594338989258,99680.921,1.9262207193374634,1.9735608081817626,-629.8795126638105,-0.05946542675636949,-0.007744825246082919,0.20638967971290476
328,841.9137315772692,329.0,35.06928038597107,41125,69.55034791564941,100089.1215,1.9105175819396973,1.9234136171340943,-631.8163277762277,-0.028689971223237024,-0.003410823465812774,0.20679972088410578
329,837.625854517589,330.0,34.63661456108093,41250,78.10129475402832,100313.710625,2.071928431034088,2.1028365812301635,-631.9107606949344,-0.02437407898926927,-0.004041316652400119,0.20690821130218304
330,826.5192888647105,331.0,34.7498505115509,41375,84.49539878845215,100605.598,2.1287743272781374,2.084753845214844,-632.7997271825396,-0.012230122476697915,0.007202464968912185,0.20687096408869163
331,832.725608049074,332.0,34.3800151348114,41500,95.5954100341797,100727.8640625,2.0432286920547487,2.0124845032691954,-633.752448297316,-0.03317234629104214,0.007334440800120994,0.20663735670080333
332,820.63858932056,333.0,34.586554527282715,41625,82.82789886474609,100934.60225,2.070957173347473,2.0960933637619017,-634.444587828621,-0.10711938994271415,-0.012271209623635052,0.20675391884416297
333,842.0145470933354,334.0,34.69172692298889,41750,81.58356118774414,100962.5911875,1.9830668659210204,1.9614202766418456,-634.0985894972279,-0.06934189706319763,-0.003158567570931008,0.20699713193060876
334,826.8741116298677,335.0,34.721439838409424,41875,91.88586965942383,101410.453,2.14900918006897,2.173949456691742,-635.7659592401413,-0.0013926125294159329,0.001993700610621581,0.20705790067740135
335,822.8276936404911,336.0,34.536373138427734,42000,86.64993179321289,101622.791,2.233151361942291,2.274953577041626,-635.9308176348286,0.011618802203766761,0.0021170835205984694,0.20699367685158943
336,825.1198438451412,337.0,34.806538820266724,42125,86.00466525268554,101908.6455625,2.2288262152671816,2.229012118816376,-636.8142496744791,0.00964952606175627,0.007584404832284365,0.20668808631539118
337,824.2271917232249,338.0,34.40341401100159,42250,95.40122921752929,102406.3866875,2.4144910411834717,2.4855614461898803,-638.8230521909652,-0.037540640621896715,0.008208106035336612,0.20619915287808963
338,838.2818019341728,339.0,34.786360025405884,42375,86.77297412109375,102580.4269375,2.141176456928253,2.0750148997306823,-639.4855133541047,0.013849312646521462,0.0028587315704614396,0.20599887088048807
339,736.6870989499753,340.0,34.878878116607666,42500,86.64027955627441,102838.494125,2.1915073256492614,2.212963631153107,-639.8492195375504,0.0334308638928398,0.002991821541781387,0.20583826649954243
340,818.8238644632306,341.0,34.5645112991333,42625,93.80156646728516,103133.6908125,2.135979745388031,2.1344776067733764,-641.3412717788939,-0.012380230462267286,0.006609405346569561,0.20577459768001333
341,828.0984741194391,342.0,34.63179898262024,42750,86.03284088134765,103338.996,2.095237093448639,2.0585305314064026,-641.9557593560988,-0.04528371124498306,-0.0003442468024009178,0.20553540783646293
342,815.9564940655997,343.0,34.90625309944153,42875,83.16625318908692,103408.271875,2.126978735923767,2.1174408679008483,-642.3836853996156,0.055916791456559346,0.009806322820839427,0.20551595720509303
343,826.7511116087277,344.0,34.479241609573364,43000,89.23443295288087,103476.1434375,1.974465774536133,1.9777895917892456,-641.739013671875,0.11576868569658648,0.014284642732461853,0.2048499844060461
344,819.8603798459209,345.0,34.608598947525024,43125,81.63248362731933,103698.0220625,1.9084739203453065,1.8895673203468322,-642.8848780071925,0.022929029332266912,0.013729411406472089,0.20411068607039523
345,842.0053325164158,346.0,34.536576986312866,43250,76.1518094177246,104041.849875,1.9550227184295654,1.9555762887001038,-644.1374777517011,-0.04930439507288317,-0.0014069898790048977,0.2038076030092701
346,829.1084777023431,347.0,35.192856311798096,43375,84.86200001525879,104329.513125,2.044781237602234,2.0041607723236083,-645.2691214425223,-0.0019234738770931485,0.014812499292135711,0.20361332482417252
347,818.1859342837689,348.0,34.772998332977295,43500,78.01126084899903,104522.5553125,2.05585843706131,2.0472577295303345,-644.7371373330393,-0.014819197837383516,0.0013676329418235728,0.20333572474845132
348,832.8927353414224,349.0,34.67783188819885,43625,75.83383406066895,104580.1109375,1.9295032377243042,1.9379936318397522,-645.1693502759176,-0.00270326914531844,0.011224673092660923,0.202896767377307
349,821.4890979281265,350.0,34.40295338630676,43750,78.71908721923828,105053.27075,2.0437741899490356,2.058182098388672,-647.5264548024824,-0.023806402504804633,0.0033126641477968905,0.20251793941370522
350,840.049473551146,351.0,35.031327962875366,43875,81.3583521118164,104994.6745625,2.0927631797790527,2.1055390129089355,-647.3183138408358,0.004239834549408111,0.004054424825996634,0.20249098042567995
351,830.7921447782329,352.0,34.54313683509827,44000,90.57987741088867,105178.5565625,2.2116094484329225,2.2219317564964296,-647.5574124243951,0.010578751113385923,0.0029087708812327155,0.2022033217897163
352,827.3113987544499,353.0,35.38171029090881,44125,90.97485800170898,105777.3451875,2.1601983819007873,2.212628490924835,-649.4710199265253,-0.037429092185837884,0.007763302478466242,0.20210384017854355
353,821.0206707263158,354.0,34.28323674201965,44250,81.0767830505371,105637.5050625,1.946234959602356,1.9682364377975463,-649.0566081385458,0.016153621277020823,0.009046912347266992,0.20160567390792639
354,801.5449596756125,355.0,34.63250923156738,44375,90.4607844543457,106140.4570625,1.8924812355041505,1.8861264309883117,-650.0949929858011,0.008103451795048185,0.0065899548372105946,0.2011650008685019
355,834.6800476221053,356.0,34.59810400009155,44500,88.22469134521485,105975.6101875,2.169234260082245,2.1624236755371093,-649.7129506757183,-0.0670589022638817,-0.0008805872752301154,0.20119175764852454
356,826.066270090449,357.0,34.55105948448181,44625,91.18719499206543,106533.0046875,1.9850018916130066,2.014231586933136,-651.1192578512524,0.006511651363874238,0.0034653700052923154,0.20112127224189733
357,833.2537034249881,358.0,34.870325803756714,44750,76.5353673248291,106822.2124375,1.9034827094078064,1.8855810656547547,-652.4824740502143,-0.0434465168584739,0.002996186763348599,0.20088185442736212
358,840.4573702578184,359.0,34.66681885719299,44875,82.22422976684571,107020.1528125,1.9806185402870178,1.9945716562271119,-653.3253842308408,-0.035767713088601355,0.010635769519481867,0.20071969982512303
359,826.4862130679105,360.0,34.702751874923706,45000,90.26053424072266,106696.9455,2.0884103817939756,2.1444506497383116,-652.6410758726058,-0.000718424637471476,0.014318061481800771,0.19997092067427447
360,828.3928825536962,361.0,34.770880460739136,45125,81.83431793212891,107137.2065,1.9458551440238954,1.9410640063285827,-653.1755971757192,-0.013202619487567553,0.009241897464981155,0.19949062449618304
361,830.1268854574118,362.0,34.60079312324524,45250,81.08208267211914,107653.7210625,1.8935251741409302,1.9253200097084044,-655.4712416125882,-0.07180124431127502,0.003505947714250895,0.1991298811080346
362,831.0637761188376,363.0,34.676265716552734,45375,77.3442853088379,107892.7274375,1.8684457657337188,1.8702520191669465,-655.4190886966766,-0.08870816538258204,0.002452853900779571,0.19900197995943972
363,841.4377214689039,364.0,34.543217182159424,45500,79.37975843811036,108117.64625,1.8313909459114075,1.788699203968048,-657.0240143806703,-0.0010365266052465285,0.014818472675077857,0.1986832617058194
364,830.3035051062261,365.0,34.59743118286133,45625,71.90468966674804,108050.229375,1.9189885067939758,1.9578976969718933,-656.4854465060764,-0.038415945534195216,0.0021667429818845695,0.1983178881114952
365,831.5592762281877,366.0,34.61304998397827,45750,90.5465923461914,108361.0015625,2.011432760000229,2.011664719581604,-657.3907903855846,-0.04701377884034188,0.01498978325886832,0.19787641670215586
366,828.5621651114723,367.0,34.59967494010925,45875,84.9325336151123,108620.911375,2.0997569441795347,2.0509079842567446,-657.7133837503101,-0.005954114838488518,0.007588168879645685,0.19740493596750872
367,833.973648042606,368.0,34.53072500228882,46000,80.49042593383788,108812.8403125,1.9851962676048278,1.9845443983078004,-658.5394651351437,0.05487307885120953,0.01233936323889441,0.19695734063257375
368,820.2810185838716,369.0,34.78423523902893,46125,86.63959292602539,108987.7079375,1.9008745841979982,1.8948222408294677,-659.3227074032739,0.011516429720416901,0.011747335904233512,0.19642504885596068
369,816.6597276539469,370.0,34.759748220443726,46250,85.48112426757812,109342.9925625,1.905762137413025,1.8891694073677063,-660.1056164157006,-0.005048091478285289,0.011091245034138763,0.19586773052590534
370,821.458041515595,371.0,34.62942171096802,46375,80.11932899475097,109622.73425,2.1171390833854677,2.1480552124977113,-660.5677034892733,-0.08132470505578178,0.007582101261331921,0.19550119562635954
371,825.7111913966507,372.0,34.584442377090454,46500,67.16603247070313,109607.1734375,1.8515571160316466,1.8453454852104187,-660.8129735146799,-0.02986655252114419,-0.005161255673174897,0.1954297800521802
372,828.2220684898128,373.0,34.49479699134827,46625,84.24275698852539,109891.25725,1.925353394985199,1.9462693147659302,-661.3675062391493,-0.08614036216149254,-0.0037480354131687256,0.19568297169460275
373,835.0686494722063,374.0,26.63730812072754,46750,77.4041732788086,110173.4245,1.8954236674308778,1.9013284239768982,-662.8566097136467,-0.08991465224854407,0.0024327085007943452,0.19572308775151553
374,835.6214174847313,375.0,27.101869821548462,46875,81.72386549377441,110067.951125,1.8715043573379517,1.869522822380066,-662.0971999395462,-0.1469146085991746,-0.010956933252542975,0.19579495653292683
375,839.0296341821246,376.0,27.023337364196777,47000,82.83074391174317,110154.0734375,2.053876790046692,2.040101017951965,-662.7775603263609,-0.06296742232816835,-0.003858070099546063,0.1961379536813051
376,831.7308232900666,377.0,26.72618842124939,47125,76.14432019042968,110535.0843125,1.820301387310028,1.8174577651023864,-664.4783238002232,-0.04754376417351148,0.008927977703038662,0.1960972926939945
377,826.5155911543575,378.0,23.773109674453735,47250,74.85325132751464,110809.01275,1.8392480049133302,1.8763488178253174,-664.7858305900328,-0.07762250262162378,0.0012006270624096355,0.1957854499377427
378,834.1160898010645,379.0,23.470340251922607,47375,78.89850344848632,110800.792875,1.7234153580665588,1.7262765653133392,-664.5806119404142,-0.020199710089299414,0.0060134693492381345,0.19570083313007042
379,825.9620178108123,380.0,23.336973905563354,47500,78.96278735351562,111160.6245625,2.0670969362258913,2.067562828540802,-665.6383932790449,-0.11786588942331652,-0.00512507748639872,0.19565103534882075
380,837.1315690763394,381.0,23.43085503578186,47625,68.31661976623535,111574.1165,1.812093629360199,1.798545536518097,-667.0780387757317,-0.09517313746942414,0.0002140760835674074,0.19575759939093265
381,822.0889053462183,382.0,25.01164221763611,47750,71.29253964233398,111716.3425625,1.8279705958366395,1.8234244413375855,-667.4722929923765,-0.10311207079118298,0.004186781615229143,0.19567350292485872
382,823.1800879479546,383.0,24.92732071876526,47875,77.2770743560791,111747.457,1.9227502484321595,1.9605716767311097,-667.8354879712301,-0.16336714133383737,-0.007243593925580619,0.19573163312461989
383,843.2165327468047,384.0,23.389872312545776,48000,73.16761706542968,112156.9515,2.0039196109771726,1.93844615983963,-668.8140810074344,-0.15021001307233686,-0.008953933806849583,0.19615962377277119
384,828.3622652935672,385.0,23.734150171279907,48125,84.91511337280274,111967.430375,2.210219814300537,2.1486486639976503,-668.2943124922496,-0.11422833936318519,-0.0036288222024542472,0.1964687887521344
385,833.9298323083367,386.0,23.648443698883057,48250,75.80324293518066,112273.6771875,1.8257356009483336,1.842019567489624,-669.958000921434,-0.08333944168783003,0.012117502046748996,0.19615847282271132
386,814.0284130952906,387.0,24.43047332763672,48375,88.33624716186523,112608.373375,2.052155306816101,2.075955406665802,-669.7292412651909,-0.03490103065731034,0.008285351651942446,0.1956963304261485
387,821.9418029484708,388.0,23.74522352218628,48500,73.85937739562988,112735.495125,1.7999471483230591,1.815985370159149,-670.2997603877898,-0.0764432905782615,-0.0009226682070162028,0.19548912588022319
388,827.6542765012163,389.0,23.649386405944824,48625,82.42190942382813,113038.316625,1.9730515093803407,1.9649153575897216,-671.9916701543899,0.012706842746526475,0.01126460266846513,0.19545279744053592
389,823.6699442703775,390.0,24.28496217727661,48750,81.58575053405762,112952.9021875,1.8927525444030762,1.9027706117630006,-671.2511340725806,-0.04579272603375777,0.006308563752099872,0.1949019649713632
390,797.0021278152849,391.0,24.157700777053833,48875,76.57400387573242,113433.5946875,1.8952354989051818,1.9125734605789184,-672.8827156187996,-0.06157919705387146,0.0038797480039416796,0.19462178704853222
391,834.8834907943757,392.0,23.97537612915039,49000,69.71743984985352,113630.7528125,1.9055689282417296,1.875482560634613,-672.7845429451235,-0.0884199320909477,0.0063916162076976995,0.19450256624203638
392,833.8248692491934,393.0,23.33946704864502,49125,63.86594613647461,113607.6190625,1.6755282702445984,1.6732051382064819,-672.7635565863716,-0.05985012384397643,0.009933427220121735,0.19412939032880122
393,820.2129259387219,394.0,23.233821392059326,49250,69.61050283813476,113826.480125,1.7480641446113587,1.7516225531101226,-673.239269625756,-0.010647934200542589,0.011432409128775039,0.19358611645123483
394,825.7061218995001,395.0,23.366541385650635,49375,64.64804486083985,113861.3549375,1.763965967655182,1.736627278327942,-673.7112746465774,0.017073659669785274,0.017084028220750273,0.19304338916148597
395,826.2608574217288,396.0,23.969974517822266,49500,79.72108532714844,113999.6269375,1.8359299178123474,1.8279989681243896,-673.7237381473665,0.04083945283726338,0.014875897341558048,0.1921913405689687
396,837.6654881088554,397.0,24.480751752853394,49625,80.24736390686036,114167.2564375,1.9117183594703675,1.9880828399658204,-674.6083441840278,-0.07171950075361463,0.004837675408149759,0.19168591748356698
397,839.4323734920293,398.0,24.534663200378418,49750,74.30423706054688,114620.305875,1.8609271492958068,1.8787490932941437,-676.3345179403982,-0.07351688139380948,0.009969392802656418,0.19142774932301437
398,827.6029610469518,399.0,24.76389789581299,49875,73.61637649536132,114652.4931875,1.860870960712433,1.8509769005775452,-676.5759945824033,-0.1201078709628847,0.00039291586948647384,0.1911764063947044
399,836.8180413835029,400.0,23.70693016052246,50000,72.56298670959472,114926.5859375,1.8266241340637206,1.8255004296302795,-676.1102324455015,-0.06220268788597276,-0.004038686496055414,0.19124639783476857
